!!!SOCIAL_FUNCTION:	songs of an undetermined dance
!!!PDT:	1922
!!!OTL: No_27_Undetermined_Dance_Song_(a).krn
!!!REG: Southwest
!!!LANG: Non-Tone
!!!LING_GROUP: Uto-Aztecan
**kern
*staff1
=
*clefF4
*k[f#]
*M2/4
8.B\L
16B\Jk
=1
8.d\L
16d\Jk
8.d\L
16d\Jk
=2
8B\L
16d\L
16c\JJ
8B\L
8A\J
=3||
*M3/4
8.G\L
16G\Jk
8.G\L
16D\Jk
8.B\L
16B\Jk
=4||
*M2/4
8.d\L
16d\Jk
8.d\L
16d\Jk
=5
8B\L
16d\L
16c\JJ
8B\L
8A\J
=6||
*M5/8
8.G\L
16G\K
8G\
8G\J
8r
=7||
*M3/8
8G\L
8G\
8E\J
=8||
*M2/4
8.D\L
16D\Jk
8D\
8r
=9
8.D\L
16D\Jk
8.D\L
16D\Jk
=10||
*M3/4
8.D\L
16D\Jk
8.D\L
16D\Jk
4D\
=11||
*M2/4
12G\L
12E\
12D\J
12E\L
12D\
12F#\J
=12||
*M3/4
12G\L
12E\
12D\J
8.D\L
16D\Jk
4D\
=13||
*M2/4
12G\L
12E\
12D\J
12E\L
12D\
12F#\J
=14||
*M3/4
12G\L
12E\
12D\J
8.D\L
16D\Jk
4D\
=15||
*M2/4
8.D\L
16D\Jk
8.D\L
16D\Jk
=16
8.D\L
16D\Jk
8.D\L
16D\Jk
=17
4D\
4r
==
*-
